%
(1001)
(TUTNING CONE)
(T1  D=63. CR=8. - ZMIN=-7.8 - FACE MILL)
(T2  D=4.1 CR=0. TAPER=118DEG - ZMIN=-12. - DRILL)
N10 G90 G94 G17 G91.1
N15 G21
N20 G53 G0 Z0.
(FACE2)
N25 M9
N30 T1 M6
N35 T2
N40 S5000 M3
N45 G54
N50 M8
N55 G0 X81.95 Y-26.913
N60 G43 Z15. H1
N65 G0 Z6.3
N70 G18 G3 X75.65 Z0. I-6.3 K0. F1000.
N75 G1 X41.
N80 X-41.
N85 G17 G2 Y17.229 I0. J22.071
N90 G1 X41.
N95 G18 G2 X47.3 Z6.3 I0. K6.3
N100 G0 Z15.
N105 G17
N110 M5
N115 G53 G0 Z0.
(DRILL3)
N120 M9
N125 M1
N130 T2 M6
N135 T1
N140 S2000 M3
N145 G54
N150 G0 X0.141 Y-19.249
N155 G43 Z15. H2
N160 G0 Z5.
N165 Z-1.
N170 Z-4.
N175 G1 Z-7.025 F40.
N180 G0 Z-6.925
N185 G1 Z-8.05 F40.
N190 G0 Z-7.95
N195 G1 Z-9.075 F40.
N200 G0 Z-8.975
N205 G1 Z-10.1 F40.
N210 G0 Z-10.
N215 G1 Z-11.125 F40.
N220 G0 Z-11.025
N225 G1 Z-12. F40.
N230 G0 Z5.
N235 X-23.55 Y-23.55
N240 Z2.
N245 G1 Z-1.025 F40.
N250 G0 Z-0.925
N255 G1 Z-2.05 F40.
N260 G0 Z-1.95
N265 G1 Z-3.075 F40.
N270 G0 Z-2.975
N275 G1 Z-4.1 F40.
N280 G0 Z-4.
N285 G1 Z-5.125 F40.
N290 G0 Z-5.025
N295 G1 Z-6.15 F40.
N300 G0 Z-6.05
N305 G1 Z-7.175 F40.
N310 G0 Z-7.075
N315 G1 Z-8.2 F40.
N320 G0 Z-8.1
N325 G1 Z-9.225 F40.
N330 G0 Z-9.125
N335 G1 Z-10.25 F40.
N340 G0 Z-10.15
N345 G1 Z-11.275 F40.
N350 G0 Z-11.175
N355 G1 Z-12. F40.
N360 G0 Z5.
N365 X-19.249 Y-0.141
N370 Z-1.
N375 Z-4.
N380 G1 Z-7.025 F40.
N385 G0 Z-6.925
N390 G1 Z-8.05 F40.
N395 G0 Z-7.95
N400 G1 Z-9.075 F40.
N405 G0 Z-8.975
N410 G1 Z-10.1 F40.
N415 G0 Z-10.
N420 G1 Z-11.125 F40.
N425 G0 Z-11.025
N430 G1 Z-12. F40.
N435 G0 Z5.
N440 X0. Y0.
N445 Z3.
N450 Z0.
N455 G1 Z-3.025 F40.
N460 G0 Z-2.925
N465 G1 Z-4.05 F40.
N470 G0 Z-3.95
N475 G1 Z-5.075 F40.
N480 G0 Z-4.975
N485 G1 Z-6.1 F40.
N490 G0 Z-6.
N495 G1 Z-7.125 F40.
N500 G0 Z-7.025
N505 G1 Z-8.15 F40.
N510 G0 Z-8.05
N515 G1 Z-9.175 F40.
N520 G0 Z-9.075
N525 G1 Z-10.2 F40.
N530 G0 Z-10.1
N535 G1 Z-11.225 F40.
N540 G0 Z-11.125
N545 G1 Z-12. F40.
N550 G0 Z5.
N555 X19.249 Y0.141
N560 Z-1.
N565 Z-4.
N570 G1 Z-7.025 F40.
N575 G0 Z-6.925
N580 G1 Z-8.05 F40.
N585 G0 Z-7.95
N590 G1 Z-9.075 F40.
N595 G0 Z-8.975
N600 G1 Z-10.1 F40.
N605 G0 Z-10.
N610 G1 Z-11.125 F40.
N615 G0 Z-11.025
N620 G1 Z-12. F40.
N625 G0 Z5.
N630 X23.55 Y23.55
N635 Z2.
N640 G1 Z-1.025 F40.
N645 G0 Z-0.925
N650 G1 Z-2.05 F40.
N655 G0 Z-1.95
N660 G1 Z-3.075 F40.
N665 G0 Z-2.975
N670 G1 Z-4.1 F40.
N675 G0 Z-4.
N680 G1 Z-5.125 F40.
N685 G0 Z-5.025
N690 G1 Z-6.15 F40.
N695 G0 Z-6.05
N700 G1 Z-7.175 F40.
N705 G0 Z-7.075
N710 G1 Z-8.2 F40.
N715 G0 Z-8.1
N720 G1 Z-9.225 F40.
N725 G0 Z-9.125
N730 G1 Z-10.25 F40.
N735 G0 Z-10.15
N740 G1 Z-11.275 F40.
N745 G0 Z-11.175
N750 G1 Z-12. F40.
N755 G0 Z5.
N760 X-0.141 Y19.249
N765 Z-1.
N770 Z-4.
N775 G1 Z-7.025 F40.
N780 G0 Z-6.925
N785 G1 Z-8.05 F40.
N790 G0 Z-7.95
N795 G1 Z-9.075 F40.
N800 G0 Z-8.975
N805 G1 Z-10.1 F40.
N810 G0 Z-10.
N815 G1 Z-11.125 F40.
N820 G0 Z-11.025
N825 G1 Z-12. F40.
N830 G0 Z5.
N835 X-23.55 Y23.55
N840 Z2.
N845 G1 Z-1.025 F40.
N850 G0 Z-0.925
N855 G1 Z-2.05 F40.
N860 G0 Z-1.95
N865 G1 Z-3.075 F40.
N870 G0 Z-2.975
N875 G1 Z-4.1 F40.
N880 G0 Z-4.
N885 G1 Z-5.125 F40.
N890 G0 Z-5.025
N895 G1 Z-6.15 F40.
N900 G0 Z-6.05
N905 G1 Z-7.175 F40.
N910 G0 Z-7.075
N915 G1 Z-8.2 F40.
N920 G0 Z-8.1
N925 G1 Z-9.225 F40.
N930 G0 Z-9.125
N935 G1 Z-10.25 F40.
N940 G0 Z-10.15
N945 G1 Z-11.275 F40.
N950 G0 Z-11.175
N955 G1 Z-12. F40.
N960 G0 Z5.
N965 Z15.
N970 M5
N975 G53 Z0.
(2D POCKET1)
N980 M1
N985 T1 M6
N990 S5000 M3
N995 G54
N1000 M7
N1005 G0 X-1.303 Y-0.28
N1010 G43 Z15. H1
N1015 G0 Z5.
N1020 G1 Z3.096 F1440.
N1025 X-1.292 Y-0.306 Z2.914
N1030 X-1.257 Y-0.382 Z2.749
N1035 X-1.199 Y-0.497 Z2.617
N1040 X-1.119 Y-0.639 Z2.532
N1045 X-1.019 Y-0.791 Z2.5
N1050 G3 X3.619 Y2.456 Z2.345 I2.319 J1.624
N1055 X-1.019 Y-0.791 Z2.19 I-2.319 J-1.624
N1060 X3.619 Y2.456 Z2.034 I2.319 J1.624
N1065 X-1.019 Y-0.791 Z1.879 I-2.319 J-1.624
N1070 X3.619 Y2.456 Z1.724 I2.319 J1.624
N1075 X-1.019 Y-0.791 Z1.569 I-2.319 J-1.624
N1080 X3.619 Y2.456 Z1.413 I2.319 J1.624
N1085 X-1.019 Y-0.791 Z1.258 I-2.319 J-1.624
N1090 X3.619 Y2.456 Z1.103 I2.319 J1.624
N1095 X-1.019 Y-0.791 Z0.948 I-2.319 J-1.624
N1100 X3.619 Y2.456 Z0.792 I2.319 J1.624
N1105 X-1.019 Y-0.791 Z0.637 I-2.319 J-1.624
N1110 X3.619 Y2.456 Z0.482 I2.319 J1.624
N1115 X-1.019 Y-0.791 Z0.327 I-2.319 J-1.624
N1120 X3.619 Y2.456 Z0.171 I2.319 J1.624
N1125 X-1.019 Y-0.791 Z0.016 I-2.319 J-1.624
N1130 X3.619 Y2.456 Z-0.139 I2.319 J1.624
N1135 X-1.019 Y-0.791 Z-0.294 I-2.319 J-1.624
N1140 X3.619 Y2.456 Z-0.45 I2.319 J1.624
N1145 X-1.019 Y-0.791 Z-0.605 I-2.319 J-1.624
N1150 X3.619 Y2.456 Z-0.76 I2.319 J1.624
N1155 X-1.019 Y-0.791 Z-0.915 I-2.319 J-1.624
N1160 X3.619 Y2.456 Z-1.071 I2.319 J1.624
N1165 X-1.019 Y-0.791 Z-1.226 I-2.319 J-1.624
N1170 X3.619 Y2.456 Z-1.381 I2.319 J1.624
N1175 X-1.019 Y-0.791 Z-1.536 I-2.319 J-1.624
N1180 X3.619 Y2.456 Z-1.692 I2.319 J1.624
N1185 X-1.019 Y-0.791 Z-1.847 I-2.319 J-1.624
N1190 X3.684 Y2.359 Z-2. I2.319 J1.624
N1195 X3.193 Y3.008 I-4.373 J-2.8 F400.
N1200 X0.659 Y4.382 I-3.163 J-2.81
N1205 G1 X0.5 Y4.411
N1210 X0.341 Y4.44
N1215 G3 X-0.406 Y4.434 I-0.356 J-2.368
N1220 X-3.008 Y3.193 I0.847 J-5.123
N1225 X-4.382 Y0.659 I2.81 J-3.163
N1230 G1 X-4.411 Y0.5
N1235 X-4.44 Y0.341
N1240 G3 X-4.434 Y-0.406 I2.368 J-0.356
N1245 X-3.193 Y-3.008 I5.123 J0.847
N1250 X-0.659 Y-4.382 I3.163 J2.81
N1255 G1 X-0.5 Y-4.411
N1260 X-0.341 Y-4.44
N1265 G3 X0.406 Y-4.434 I0.356 J2.368
N1270 X3.008 Y-3.193 I-0.847 J5.123
N1275 X4.382 Y-0.659 I-2.81 J3.163
N1280 G1 X4.411 Y-0.5
N1285 X4.44 Y-0.341
N1290 G3 X4.434 Y0.406 I-2.368 J0.356
N1295 X3.684 Y2.359 I-5.123 J-0.847
N1300 G2 X3.459 Y6.323 I3.408 J2.182
N1305 G3 X1.645 Y9.856 I-2.223 J1.09
N1310 G1 X1.485 Y9.881
N1315 X1.312 Y9.913
N1320 X1.138 Y9.944
N1325 G3 X-1.284 Y9.927 I-1.155 J-7.686
N1330 X-6.955 Y7.104 I1.759 J-10.644
N1335 X-9.881 Y1.485 I6.715 J-7.068
N1340 G1 X-9.913 Y1.312
N1345 X-9.944 Y1.138
N1350 G3 X-9.927 Y-1.284 I7.686 J-1.155
N1355 X-7.104 Y-6.955 I10.644 J1.759
N1360 X-1.485 Y-9.881 I7.068 J6.715
N1365 G1 X-1.312 Y-9.913
N1370 X-1.138 Y-9.944
N1375 G3 X1.284 Y-9.927 I1.155 J7.686
N1380 X6.955 Y-7.104 I-1.759 J10.644
N1385 X9.881 Y-1.485 I-6.715 J7.068
N1390 G1 X9.913 Y-1.312
N1395 X9.944 Y-1.138
N1400 G3 X9.927 Y1.284 I-7.686 J1.155
N1405 X7.104 Y6.955 I-10.644 J-1.759
N1410 X1.645 Y9.856 I-7.068 J-6.715
N1415 G2 X-1.674 Y12.677 I0.7 J4.186
N1420 G3 X-5.62 Y14.52 I-2.857 J-0.971
N1425 X-15.397 Y2.314 I5.62 J-14.52
N1430 G1 X-15.762 Y-0.115
N1435 X-15.362 Y-2.539
N1440 G3 X-2.314 Y-15.397 I15.362 J2.539
N1445 G1 X0.115 Y-15.762
N1450 X2.539 Y-15.362
N1455 G3 X15.397 Y-2.314 I-2.539 J15.362
N1460 G1 X15.762 Y0.115
N1465 X15.362 Y2.539
N1470 G3 X2.314 Y15.397 I-15.362 J-2.539
N1475 G1 X-0.115 Y15.762
N1480 X-2.539 Y15.362
N1485 G3 X-5.62 Y14.52 I2.539 J-15.362
N1490 G1 X-5.703 Y14.48 Z-1.985 F1440.
N1495 X-5.779 Y14.428 Z-1.971
N1500 X-5.84 Y14.372 Z-1.929
N1505 X-5.893 Y14.308 Z-1.886
N1510 X-5.927 Y14.252 Z-1.82
N1515 X-5.956 Y14.192 Z-1.754
N1520 X-5.983 Y14.112 Z-1.588
N1525 X-5.989 Y14.084 Z-1.404
N1530 G0 Z15.
(BORE2)
N1535 G0 X-0.141 Y19.249
N1540 Z15.
N1545 Z1.404
N1550 G1 Z0. F1440.
N1555 X-0.131 Y19.239
N1560 X-0.124 Y19.242
N1565 X-0.121 Y19.249
N1570 X-0.128 Y19.265 Z-0.143 F400.
N1575 X-0.145 Y19.269 Z-0.286
N1580 X-0.159 Y19.258 Z-0.429
N1585 Y19.241 Z-0.571
N1590 X-0.145 Y19.23 Z-0.714
N1595 X-0.128 Y19.234 Z-0.857
N1600 X-0.121 Y19.249 Z-1.
N1605 X-0.128 Y19.265 Z-1.143
N1610 X-0.145 Y19.269 Z-1.286
N1615 X-0.159 Y19.258 Z-1.429
N1620 Y19.241 Z-1.571
N1625 X-0.145 Y19.23 Z-1.714
N1630 X-0.128 Y19.234 Z-1.857
N1635 X-0.121 Y19.249 Z-2.
N1640 X-0.128 Y19.265 Z-2.143
N1645 X-0.145 Y19.269 Z-2.286
N1650 X-0.159 Y19.258 Z-2.429
N1655 Y19.241 Z-2.571
N1660 X-0.145 Y19.23 Z-2.714
N1665 X-0.128 Y19.234 Z-2.857
N1670 X-0.121 Y19.249 Z-3.
N1675 X-0.128 Y19.265 Z-3.143
N1680 X-0.145 Y19.269 Z-3.286
N1685 X-0.159 Y19.258 Z-3.429
N1690 Y19.241 Z-3.571
N1695 X-0.145 Y19.23 Z-3.714
N1700 X-0.128 Y19.234 Z-3.857
N1705 X-0.121 Y19.249 Z-4.
N1710 X-0.128 Y19.265 Z-4.143
N1715 X-0.145 Y19.269 Z-4.286
N1720 X-0.159 Y19.258 Z-4.429
N1725 Y19.241 Z-4.571
N1730 X-0.145 Y19.23 Z-4.714
N1735 X-0.128 Y19.234 Z-4.857
N1740 X-0.121 Y19.249 Z-5.
N1745 X-0.128 Y19.265 Z-5.143
N1750 X-0.145 Y19.269 Z-5.286
N1755 X-0.159 Y19.258 Z-5.429
N1760 Y19.241 Z-5.571
N1765 X-0.145 Y19.23 Z-5.714
N1770 X-0.128 Y19.234 Z-5.857
N1775 X-0.121 Y19.249 Z-6.
N1780 G3 X-0.161 I-0.02 J0.
N1785 X-0.121 I0.02 J0.
N1790 G1 X-0.124 Y19.257 F1440.
N1795 X-0.131 Y19.259
N1800 X-0.141 Y19.249
N1805 G0 Z5.
N1810 X19.249 Y0.141
N1815 Z1.404
N1820 G1 Z0. F1440.
N1825 X19.238 Y0.132
N1830 X19.24 Y0.125
N1835 X19.247 Y0.121
N1840 X19.263 Y0.126 Z-0.136 F400.
N1845 X19.269 Y0.141 Z-0.273
N1850 X19.263 Y0.156 Z-0.409
N1855 X19.247 Y0.16 Z-0.545
N1860 X19.233 Y0.151 Z-0.682
N1865 X19.23 Y0.135 Z-0.818
N1870 X19.241 Y0.122 Z-0.955
N1875 X19.258 Y0.123 Z-1.091
N1880 X19.269 Y0.135 Z-1.227
N1885 X19.266 Y0.152 Z-1.364
N1890 X19.252 Y0.161 Z-1.5
N1895 X19.236 Y0.156 Z-1.636
N1900 X19.229 Y0.141 Z-1.773
N1905 X19.236 Y0.126 Z-1.909
N1910 X19.252 Y0.121 Z-2.045
N1915 X19.266 Y0.13 Z-2.182
N1920 X19.269 Y0.146 Z-2.318
N1925 X19.258 Y0.159 Z-2.455
N1930 X19.241 Z-2.591
N1935 X19.23 Y0.146 Z-2.727
N1940 X19.233 Y0.13 Z-2.864
N1945 X19.247 Y0.121 Z-3.
N1950 X19.263 Y0.126 Z-3.136
N1955 X19.269 Y0.141 Z-3.273
N1960 X19.263 Y0.156 Z-3.409
N1965 X19.247 Y0.16 Z-3.545
N1970 X19.233 Y0.151 Z-3.682
N1975 X19.23 Y0.135 Z-3.818
N1980 X19.241 Y0.122 Z-3.955
N1985 X19.258 Y0.123 Z-4.091
N1990 X19.269 Y0.135 Z-4.227
N1995 X19.266 Y0.152 Z-4.364
N2000 X19.252 Y0.161 Z-4.5
N2005 X19.236 Y0.156 Z-4.636
N2010 X19.229 Y0.141 Z-4.773
N2015 X19.236 Y0.126 Z-4.909
N2020 X19.252 Y0.121 Z-5.045
N2025 X19.266 Y0.13 Z-5.182
N2030 X19.269 Y0.146 Z-5.318
N2035 X19.258 Y0.159 Z-5.455
N2040 X19.241 Z-5.591
N2045 X19.23 Y0.146 Z-5.727
N2050 X19.233 Y0.13 Z-5.864
N2055 X19.247 Y0.121 Z-6.
N2060 G3 X19.252 Y0.161 I0.003 J0.02
N2065 X19.247 Y0.121 I-0.003 J-0.02
N2070 G1 X19.254 Y0.123 F1440.
N2075 X19.258 Y0.129
N2080 X19.249 Y0.141
N2085 G0 Z5.
N2090 X-0.53 Y0.596
N2095 Z0.
N2100 G1 Z-1.404 F1440.
N2105 G18 G3 X-1.126 Z-2. I-0.596 K0.
N2110 G1 X-1.424
N2115 G17 G3 X-2.02 Y0. I0. J-0.596
N2120 X2.02 Z-2.5 I2.02 J0. F400.
N2125 X-2.02 Z-3. I-2.02 J0.
N2130 X2.02 Z-3.5 I2.02 J0.
N2135 X-2.02 Z-4. I-2.02 J0.
N2140 X2.02 Z-4.5 I2.02 J0.
N2145 X-2.02 Z-5. I-2.02 J0.
N2150 X2.02 Z-5.5 I2.02 J0.
N2155 X-2.02 Z-6. I-2.02 J0.
N2160 X2.02 Z-6.5 I2.02 J0.
N2165 X-2.02 Z-7. I-2.02 J0.
N2170 X2.02 Z-7.5 I2.02 J0.
N2175 X-0.624 Y1.921 Z-7.8 I-2.02 J0.
N2180 X0.624 Y-1.921 I0.624 J-1.921
N2185 X-0.624 Y1.921 I-0.624 J1.921
N2190 X-1.007 Y1.17 I0.184 J-0.567 F1440.
N2195 G1 X-0.915 Y0.887
N2200 X-0.886 Y0.798 Z-7.793
N2205 X-0.858 Y0.712 Z-7.771
N2210 X-0.831 Y0.629 Z-7.735
N2215 X-0.807 Y0.554 Z-7.686
N2220 X-0.785 Y0.486 Z-7.625
N2225 X-0.766 Y0.428 Z-7.554
N2230 X-0.751 Y0.382 Z-7.475
N2235 X-0.74 Y0.348 Z-7.388
N2240 X-0.733 Y0.327 Z-7.297
N2245 X-0.731 Y0.32 Z-7.204
N2250 G0 Z5.
N2255 X-19.249 Y-0.141
N2260 Z1.404
N2265 G1 Z0. F1440.
N2270 X-19.238 Y-0.132
N2275 X-19.24 Y-0.125
N2280 X-19.247 Y-0.121
N2285 X-19.263 Y-0.126 Z-0.136 F400.
N2290 X-19.269 Y-0.141 Z-0.273
N2295 X-19.263 Y-0.156 Z-0.409
N2300 X-19.247 Y-0.16 Z-0.545
N2305 X-19.233 Y-0.151 Z-0.682
N2310 X-19.23 Y-0.135 Z-0.818
N2315 X-19.241 Y-0.122 Z-0.955
N2320 X-19.258 Y-0.123 Z-1.091
N2325 X-19.269 Y-0.135 Z-1.227
N2330 X-19.266 Y-0.152 Z-1.364
N2335 X-19.252 Y-0.161 Z-1.5
N2340 X-19.236 Y-0.156 Z-1.636
N2345 X-19.229 Y-0.141 Z-1.773
N2350 X-19.236 Y-0.126 Z-1.909
N2355 X-19.252 Y-0.121 Z-2.045
N2360 X-19.266 Y-0.13 Z-2.182
N2365 X-19.269 Y-0.146 Z-2.318
N2370 X-19.258 Y-0.159 Z-2.455
N2375 X-19.241 Z-2.591
N2380 X-19.23 Y-0.146 Z-2.727
N2385 X-19.233 Y-0.13 Z-2.864
N2390 X-19.247 Y-0.121 Z-3.
N2395 X-19.263 Y-0.126 Z-3.136
N2400 X-19.269 Y-0.141 Z-3.273
N2405 X-19.263 Y-0.156 Z-3.409
N2410 X-19.247 Y-0.16 Z-3.545
N2415 X-19.233 Y-0.151 Z-3.682
N2420 X-19.23 Y-0.135 Z-3.818
N2425 X-19.241 Y-0.122 Z-3.955
N2430 X-19.258 Y-0.123 Z-4.091
N2435 X-19.269 Y-0.135 Z-4.227
N2440 X-19.266 Y-0.152 Z-4.364
N2445 X-19.252 Y-0.161 Z-4.5
N2450 X-19.236 Y-0.156 Z-4.636
N2455 X-19.229 Y-0.141 Z-4.773
N2460 X-19.236 Y-0.126 Z-4.909
N2465 X-19.252 Y-0.121 Z-5.045
N2470 X-19.266 Y-0.13 Z-5.182
N2475 X-19.269 Y-0.146 Z-5.318
N2480 X-19.258 Y-0.159 Z-5.455
N2485 X-19.241 Z-5.591
N2490 X-19.23 Y-0.146 Z-5.727
N2495 X-19.233 Y-0.13 Z-5.864
N2500 X-19.247 Y-0.121 Z-6.
N2505 G3 X-19.252 Y-0.161 I-0.003 J-0.02
N2510 X-19.247 Y-0.121 I0.003 J0.02
N2515 G1 X-19.254 Y-0.123 F1440.
N2520 X-19.258 Y-0.129
N2525 X-19.249 Y-0.141
N2530 G0 Z5.
N2535 X0.141 Y-19.249
N2540 Z1.404
N2545 G1 Z0. F1440.
N2550 X0.132 Y-19.238
N2555 X0.125 Y-19.24
N2560 X0.121 Y-19.247
N2565 X0.126 Y-19.263 Z-0.136 F400.
N2570 X0.141 Y-19.269 Z-0.273
N2575 X0.156 Y-19.263 Z-0.409
N2580 X0.16 Y-19.247 Z-0.545
N2585 X0.151 Y-19.233 Z-0.682
N2590 X0.135 Y-19.23 Z-0.818
N2595 X0.122 Y-19.241 Z-0.955
N2600 X0.123 Y-19.258 Z-1.091
N2605 X0.135 Y-19.269 Z-1.227
N2610 X0.152 Y-19.266 Z-1.364
N2615 X0.161 Y-19.252 Z-1.5
N2620 X0.156 Y-19.236 Z-1.636
N2625 X0.141 Y-19.229 Z-1.773
N2630 X0.126 Y-19.236 Z-1.909
N2635 X0.121 Y-19.252 Z-2.045
N2640 X0.13 Y-19.266 Z-2.182
N2645 X0.146 Y-19.269 Z-2.318
N2650 X0.159 Y-19.258 Z-2.455
N2655 Y-19.241 Z-2.591
N2660 X0.146 Y-19.23 Z-2.727
N2665 X0.13 Y-19.233 Z-2.864
N2670 X0.121 Y-19.247 Z-3.
N2675 X0.126 Y-19.263 Z-3.136
N2680 X0.141 Y-19.269 Z-3.273
N2685 X0.156 Y-19.263 Z-3.409
N2690 X0.16 Y-19.247 Z-3.545
N2695 X0.151 Y-19.233 Z-3.682
N2700 X0.135 Y-19.23 Z-3.818
N2705 X0.122 Y-19.241 Z-3.955
N2710 X0.123 Y-19.258 Z-4.091
N2715 X0.135 Y-19.269 Z-4.227
N2720 X0.152 Y-19.266 Z-4.364
N2725 X0.161 Y-19.252 Z-4.5
N2730 X0.156 Y-19.236 Z-4.636
N2735 X0.141 Y-19.229 Z-4.773
N2740 X0.126 Y-19.236 Z-4.909
N2745 X0.121 Y-19.252 Z-5.045
N2750 X0.13 Y-19.266 Z-5.182
N2755 X0.146 Y-19.269 Z-5.318
N2760 X0.159 Y-19.258 Z-5.455
N2765 Y-19.241 Z-5.591
N2770 X0.146 Y-19.23 Z-5.727
N2775 X0.13 Y-19.233 Z-5.864
N2780 X0.121 Y-19.247 Z-6.
N2785 G3 X0.161 Y-19.252 I0.02 J-0.003
N2790 X0.121 Y-19.247 I-0.02 J0.003
N2795 G1 X0.123 Y-19.254 F1440.
N2800 X0.129 Y-19.258
N2805 X0.141 Y-19.249
N2810 G0 Z15.
N2815 M9
N2820 G53 Z0.
N2825 M30
%
