%
(1001)
(FLANGE)
(T5  D=3.4 CR=0. TAPER=118DEG - ZMIN=-45. - DRILL)
G90 G94 G17 G91.1
G21
G53 G0 Z0.
(DRILL3)
M9
T5 M6
S3000 M3
G54
G0 X0. Y-18.25
G43 Z-10. H5
G0 Z-20.
Z-23.
G1 Z-25.85 F20.
G0 Z-25.75
G1 Z-26.7 F20.
G0 Z-26.6
G1 Z-27.55 F20.
G0 Z-27.45
G1 Z-28.4 F20.
G0 Z-28.3
G1 Z-29.25 F20.
G0 Z-29.15
G1 Z-30.1 F20.
G0 Z-30.
G1 Z-30.95 F20.
G0 Z-30.85
G1 Z-31.8 F20.
G0 Z-31.7
G1 Z-32.65 F20.
G0 Z-32.55
G1 Z-33.5 F20.
G0 Z-33.4
G1 Z-34.35 F20.
G0 Z-20.
Z-32.35
G1 Z-35.2 F20.
G0 Z-35.1
G1 Z-36.05 F20.
G0 Z-35.95
G1 Z-36.9 F20.
G0 Z-36.8
G1 Z-37.75 F20.
G0 Z-37.65
G1 Z-38.6 F20.
G0 Z-38.5
G1 Z-39.45 F20.
G0 Z-39.35
G1 Z-40.3 F20.
G0 Z-40.2
G1 Z-41.15 F20.
G0 Z-41.05
G1 Z-42. F20.
G0 Z-41.9
G1 Z-42.85 F20.
G0 Z-42.75
G1 Z-43.7 F20.
G0 Z-20.
Z-41.7
G1 Z-44.55 F20.
G0 Z-44.45
G1 Z-45. F20.
G0 Z-20.
X18.25 Y0.
Z-23.
G1 Z-25.85 F20.
G0 Z-25.75
G1 Z-26.7 F20.
G0 Z-26.6
G1 Z-27.55 F20.
G0 Z-27.45
G1 Z-28.4 F20.
G0 Z-28.3
G1 Z-29.25 F20.
G0 Z-29.15
G1 Z-30.1 F20.
G0 Z-30.
G1 Z-30.95 F20.
G0 Z-30.85
G1 Z-31.8 F20.
G0 Z-31.7
G1 Z-32.65 F20.
G0 Z-32.55
G1 Z-33.5 F20.
G0 Z-33.4
G1 Z-34.35 F20.
G0 Z-20.
Z-32.35
G1 Z-35.2 F20.
G0 Z-35.1
G1 Z-36.05 F20.
G0 Z-35.95
G1 Z-36.9 F20.
G0 Z-36.8
G1 Z-37.75 F20.
G0 Z-37.65
G1 Z-38.6 F20.
G0 Z-38.5
G1 Z-39.45 F20.
G0 Z-39.35
G1 Z-40.3 F20.
G0 Z-40.2
G1 Z-41.15 F20.
G0 Z-41.05
G1 Z-42. F20.
G0 Z-41.9
G1 Z-42.85 F20.
G0 Z-42.75
G1 Z-43.7 F20.
G0 Z-20.
Z-41.7
G1 Z-44.55 F20.
G0 Z-44.45
G1 Z-45. F20.
G0 Z-20.
X0. Y18.25
Z-23.
G1 Z-25.85 F20.
G0 Z-25.75
G1 Z-26.7 F20.
G0 Z-26.6
G1 Z-27.55 F20.
G0 Z-27.45
G1 Z-28.4 F20.
G0 Z-28.3
G1 Z-29.25 F20.
G0 Z-29.15
G1 Z-30.1 F20.
G0 Z-30.
G1 Z-30.95 F20.
G0 Z-30.85
G1 Z-31.8 F20.
G0 Z-31.7
G1 Z-32.65 F20.
G0 Z-32.55
G1 Z-33.5 F20.
G0 Z-33.4
G1 Z-34.35 F20.
G0 Z-20.
Z-32.35
G1 Z-35.2 F20.
G0 Z-35.1
G1 Z-36.05 F20.
G0 Z-35.95
G1 Z-36.9 F20.
G0 Z-36.8
G1 Z-37.75 F20.
G0 Z-37.65
G1 Z-38.6 F20.
G0 Z-38.5
G1 Z-39.45 F20.
G0 Z-39.35
G1 Z-40.3 F20.
G0 Z-40.2
G1 Z-41.15 F20.
G0 Z-41.05
G1 Z-42. F20.
G0 Z-41.9
G1 Z-42.85 F20.
G0 Z-42.75
G1 Z-43.7 F20.
G0 Z-20.
Z-41.7
G1 Z-44.55 F20.
G0 Z-44.45
G1 Z-45. F20.
G0 Z-20.
X-18.25 Y0.
Z-23.
G1 Z-25.85 F20.
G0 Z-25.75
G1 Z-26.7 F20.
G0 Z-26.6
G1 Z-27.55 F20.
G0 Z-27.45
G1 Z-28.4 F20.
G0 Z-28.3
G1 Z-29.25 F20.
G0 Z-29.15
G1 Z-30.1 F20.
G0 Z-30.
G1 Z-30.95 F20.
G0 Z-30.85
G1 Z-31.8 F20.
G0 Z-31.7
G1 Z-32.65 F20.
G0 Z-32.55
G1 Z-33.5 F20.
G0 Z-33.4
G1 Z-34.35 F20.
G0 Z-20.
Z-32.35
G1 Z-35.2 F20.
G0 Z-35.1
G1 Z-36.05 F20.
G0 Z-35.95
G1 Z-36.9 F20.
G0 Z-36.8
G1 Z-37.75 F20.
G0 Z-37.65
G1 Z-38.6 F20.
G0 Z-38.5
G1 Z-39.45 F20.
G0 Z-39.35
G1 Z-40.3 F20.
G0 Z-40.2
G1 Z-41.15 F20.
G0 Z-41.05
G1 Z-42. F20.
G0 Z-41.9
G1 Z-42.85 F20.
G0 Z-42.75
G1 Z-43.7 F20.
G0 Z-20.
Z-41.7
G1 Z-44.55 F20.
G0 Z-44.45
G1 Z-45. F20.
G0 Z-20.
Z-10.
G53 Z0.
M30
%
