%
(1001)
(FLANGE)
(T1  D=5.96 CR=0. - ZMIN=-2. - FLAT END MILL)
(T4  D=6. CR=0. TAPER=45DEG - ZMIN=-3.3 - CHAMFER MILL)
G90 G94 G17 G91.1
G21
G53 G0 Z0.
(2D CONTOUR8)
M9
T1 M6
T4
S5000 M3
G54
G0 X17.807 Y-0.596
G43 Z15. H1
G0 Z5.
G1 Z1. F30.
Z-1.404
G18 G2 X18.403 Z-2. I0.596 K0.
G1 X18.999 F1440.
G17 G3 X19.595 Y0. I0. J0.596
X-19.595 I-19.595 J0. F600.
X19.595 I19.595 J0.
X18.999 Y0.596 I-0.596 J0. F1440.
G1 X18.403
G18 G3 X17.807 Z-1.404 I0. K0.596
G0 Z15.
G17
M5
G53 G0 Z0.
(2D CHAMFER4)
M1
T4 M6
T1
S5000 M3
G54
M8
G0 X20.969 Y0.515
G43 Z15. H4
G0 Z5.
G1 Z2. F30.
Z-1.3
X21.569 Y0.529 F1440.
G3 X-21.569 Y-0.529 I-21.569 J-0.529 F1000.
X21.569 Y0.529 I21.569 J0.529
G1 X20.969 Y0.515 F1440.
G0 Z5.
X29.8 Y0.
G1 Z2. F30.
Z-1.3
X29.2 F1440.
Y-23.2 F1000.
G2 X23.2 Y-29.2 I-6. J0.
G1 X-23.2
G2 X-29.2 Y-23.2 I0. J6.
G1 Y23.2
G2 X-23.2 Y29.2 I6. J0.
G1 X23.2
G2 X29.2 Y23.2 I0. J-6.
G1 Y0.
X29.8 F1440.
G0 Z15.
X3.4
Z5.
G1 Z2. F30.
Z-3.3
X4. F1440.
G3 X-4. I-4. J0. F1000.
X4. I4. J0.
G1 X3.4 F1440.
G0 Z15.
M9
G53 Z0.
M30
%
